!!!COM: Clementi, Muzio
!!!CDT: 1752/01/23/-1832/03/10/
!!!ODT: ~1800///
!!!OTL: Sonata No. 6 in D Major, Op. 36, Mvmt. 1
!!!OPS: Op. 36
!!!ONM: No. 6
!!!OMV: 1. Allegro con spirito
**kern	**kern	**dynam
*staff2	*staff1	*staff1/2
*Ipiano	*Ipiano	*Ipiano
*>[A,A,B,B]	*>[A,A,B,B]	*>[A,A,B,B]
*>A	*>A	*>A
*clefF4	*clefG2	*clefG2
*k[f#c#]	*k[f#c#]	*k[f#c#]
*D:	*D:	*D:
*met(C)	*met(C)	*met(C)
*M4/4	*M4/4	*M4/4
*MM132	*MM132	*MM132
4r	16b/LL	.
.	16a/	.
.	16g#/	.
.	16a/JJ	.
=1	=1	=1
8D\L	4.dd\	.
8A\	.	.
8F#\	.	.
8A\J	8a/	.
8D\L	8f#\L	.
8A\	8a\	.
8F#\	8dd\	.
8A\J	8ff#\J	.
=2	=2	=2
.	aq/	.
8D\L	4.aa\	.
8A\	.	.
8F#\	.	.
8A\J	16ff#\LL	p
.	16dd\JJ	.
8D\L	8a''/	.
8A\	8r	.
8F#\	16dd\LL	.
.	16ee\	.
8A\J	16dd\	.
.	16cc#\JJ	.
=3	=3	=3
8D\L	8b''\	.
8B\	8r	.
8G\	16dd\LL	.
.	16ee\	.
8B\J	16dd\	.
.	16cc#\JJ	.
8D\L	8b''\	.
8B\	8r	.
8G\	16ddd\LL	.
.	16bb\	.
8B\J	16ddd\	.
.	16bb\JJ	.
=4	=4	=4
8D\L	16aa\LL	.
.	16ddd\	.
8A\	16ccc#\	.
.	16bb\JJ	.
8F#\	16aa\LL	.
.	16gg\	.
8A\J	16ff#\	.
.	16ee\JJ	.
8F#\L	4dd\	.
8A\	.	.
8D\	8r	.
8A\J	8f#/	.
=5	=5	=5
8C#\L	8g/L	.
8A\	8g/J	.
8E\	16a/LL	.
.	16g/	.
8A\J	16f#/	.
.	16g/JJ	.
8C#\L	(4.ee\	.
8A\	.	.
8E\	.	.
8A\J	8g/)	.
=6	=6	=6
8D\L	8f#/L	.
8A\	8f#/J	.
8F#\	16g/LL	.
.	16f#/	.
8A\J	16e/	.
.	16f#/JJ	.
8D\L	(4.dd\	.
8A\	.	.
8F#\	.	.
8A\J	8f#/)	.
=7	=7	=7
2GG/ 2G/	(8f#/L	.
.	8e/	.
.	8g/	.
.	8b/J)	.
2AA\ 2A\	(8b/L	.
.	8c#/	.
.	8e/	.
.	8a/J)	.
=8	=8	=8
*	*^	*
8r	2g/	(2e\	.
8DD/L	.	.	.
8FF#/	.	.	.
8AA/J	.	.	.
8D/L	4f#/	4d\)	.
8AA/	.	.	.
8DD/	8r	4r	.
8D/J	8f#/	.	.
*	*v	*v	*
=9	=9	=9
8C#\L	16g/LL	.
.	16e/	.
8A\	16f#/	.
.	16g/JJ	.
8E\	16a\LL	.
.	16b\	.
8A\J	16cc#\	.
.	16dd\JJ	.
8C#\L	16ee\LL	.
.	16dd\	.
8A\	16cc#\	.
.	16b\JJ	.
8E\	16a/LL	.
.	16g/	.
8A\J	16f#/	.
.	16e/JJ	.
=10	=10	=10
8D\L	16f#/LL	f
.	16d/	.
8A\	16e/	.
.	16f#/JJ	.
8F#\	16g/LL	.
.	16a/	.
8A\J	16b/	.
.	16cc#/JJ	.
8D\L	16dd\LL	.
.	16ee\	.
8A\	16ff#\	.
.	16gg\JJ	.
8F#\	16aa\LL	.
.	16bb\	.
8A\J	16ccc#\	.
.	16ddd\JJ	.
=11	=11	=11
2GG/ 2G/	16r	.
.	16b\LL	.
.	16ee\	.
.	16gg\JJ	.
.	16bb\LL	.
.	16aa\	.
.	16gg\	.
.	16ff#\JJ	.
4AA\ 4A\	16ee\LL	.
.	16dd\	.
.	16cc#\	.
.	16b\JJ	.
4AA\ 4A\	16a/LL	.
.	16g/	.
.	16f#/	.
.	16e/JJ	.
=12	=12	=12
8DD/L	4.d/	ff
8FF#/	.	.
8AA/	.	.
8D/J	8d/	.
8DD/L	8c#/L	.
8D/	8d/	.
8DD/	8cn/	.
8D/J	8f#/J	.
=13	=13	=13
8DD/L	8B/L	.
8D/	8g/J	.
8DD/	16a/LL	.
.	16g/	.
8D/J	16f#/	.
.	16g/JJ	.
8DD/L	8b/L	.
8D/	8g/	.
8DD/	8e/	.
8D/J	8cc#/J	.
=14	=14	=14
(8DD/L	4.f#/ 4.dd/	.
8FF#/	.	.
8AA/	.	.
8D/J)	8dd\	.
8DD/L	8cc#\L	.
8D/	8dd\	.
8DD/	8ccn\	.
8D/J	8ff#\J	.
=15	=15	=15
8DD/L	8b\L	.
8D/	8gg\J	.
8DD/	16aa\LL	.
.	16gg\	.
8D/J	16ff#\	.
.	16gg\JJ	.
8DD/L	8bb\L	.
8D/	8gg\	.
8DD/	8ee\	.
8D/J	8ccc#\J	.
=16	=16	=16
8D\L	4.ff#\ 4.ddd\	ff
8F#\	.	.
8A\	.	.
8d\J	8ddd\	.
8B\L	8gg#\L	.
8d\	8gg#\J	.
8A\	16bb\LL	.
.	16aa\	.
8d\J	16gg#\	.
.	16aa\JJ	.
=17	=17	=17
8G#\L	8bb''\	.
8d\	8r	.
8E\	8r	.
8d\J	8ddd\	.
8B\L	8gg#\L	.
8d\	8gg#\J	.
8A\	16bb\LL	.
.	16aa\	.
8d\J	16gg#\	.
.	16aa\JJ	.
=18	=18	=18
8G#\L	8bb''\	.
8d\J	8r	.
4E\	8r	.
.	16bb\LL	.
.	16ccc#\JJ	.
2r	16ddd\LL	.
.	16ccc#\	.
.	16bb\	.
.	16ccc#\JJ	.
.	16ddd\LL	.
.	16ccc#\	.
.	16bb\	.
.	16ccc#\JJ	.
=19	=19	=19
8EE/L	16ddd\LL	.
.	16ccc#\	.
8E/	16bb\	.
.	16ccc#\JJ	.
8EE/	16ddd\LL	.
.	16ccc#\	.
8E/J	16bb\	.
.	16ccc#\JJ	.
8FF#/L	16ddd\LL	.
.	16ccc#\	.
8F#/	16bb\	.
.	16aa\JJ	.
8GG#/	16gg#\LL	.
.	16ff#\	.
8G#/J	16ee\	.
.	16dd\JJ	.
=20	=20	=20
8AA\L	16cc#\LL	.
.	16a\	.
8A\	16b\	.
.	16cc#\JJ	.
8AA\	16dd\LL	.
.	16ee\	.
8A\J	16ff#\	.
.	16gg#\JJ	.
8F#\L	8aa\L	.
8A\	8a\J	.
8F#\	16b/LL	.
.	16a/	.
8A\J	16g#/	.
.	16a/JJ	.
=21	=21	=21
*^	*	*
4r	8C#\L	8aa\L	.
.	8A\	8a\J	.
4r	8C#\	16b/LL	.
.	.	16a/	.
.	8A\J	16g#/	.
.	.	16a/JJ	.
8F#/L	4D#\	8aa\L	.
8A/	.	8a\J	.
8F#/	4D#\	16b/LL	.
.	.	16a/	.
8A/J	.	16g#/	.
.	.	16a/JJ	.
*v	*v	*	*
=22	=22	=22
*	*^	*
4E\	4g#/	4r	.
4EE/ 4E/	4ee/	4g#\ 4b\	.
4EE/ 4E/	4ee/	4g#\ 4b\	.
4r	4r	(8dd\L	.
.	.	8cc#\J)	.
*	*v	*v	*
=23	=23	=23
8dn\L	4b\	p
8e\	.	.
8d\	(4b\	.
8e\J	.	.
8d\L	4ee'\	.
8e\	.	.
8d\	4g#/)	.
8e\J	.	.
=24	=24	=24
8c#\L	(2b\	.
8e\	.	.
8c#\	.	.
8e\J	.	.
8c#\L	4a/	.
8e\	.	.
8c#\	8b\L	.
8e\J	8cc#\J)	.
=25	=25	=25
8B\L	4dd\	.
8e\	.	.
8E\	4dd\	.
8e\J	.	.
8A\L	4cc#\	.
8e\	.	.
8E\	4cc#\	.
8e\J	.	.
=26	=26	=26
8G#\L	(4b\	.
8e\	.	.
8E\	2ee\	.
8e\J	.	.
8G#\L	.	.
8e\	.	.
8B\	8dd\L	.
8e\J	8cc#\J)	.
=27	=27	=27
8d\L	4b\	.
8e\	.	.
8d\	(4b\	.
8e\J	.	.
8d\L	4ee\	.
8e\	.	.
8d\	4g#/)	.
8e\J	.	.
=28	=28	=28
8c#\L	(2b\	.
8e\	.	.
8c#\	.	.
8e\J	.	.
8c#\L	4a/	.
8e\	.	.
8c#\	8aa\L	.
8e\J	8ee\J)	.
=29	=29	=29
8E\L	4cc#\	.
8e\	.	.
8A\	4.cc#\	.
8e\J	.	.
8E\L	.	.
8e\	8ee\L	.
8G#\	8dd\	.
8e\J	8b\J	.
=30	=30	=30
4A\ 4c#\	16a/LL	.
.	16b/	.
.	16a/	.
.	16b/JJ	.
4r	8cc#''\L	.
.	8a''\J	.
4A\ 4d\	16f#/LL	.
.	16a/	.
.	16f#/	.
.	16a/JJ	.
4A\ 4B\	16g#/LL	.
.	16b/	.
.	16g#/	.
.	16b/JJ	.
=31	=31	=31
4A\ 4c#\	16a/LL	.
.	16b/	.
.	16a/	.
.	16b/JJ	.
4r	8cc#''\L	.
.	8a''\J	.
4A\ 4d\	16f#/LL	.
.	16a/	.
.	16f#/	.
.	16a/JJ	.
4A\ 4B\	16g#/LL	.
.	16b/	.
.	16g#/	.
.	16b/JJ	.
=32	=32	=32
4A\ 4c#\	16a\LL	.
.	16b\	.
.	16cc#\	.
.	16dd\JJ	.
4r	16ee\LL	.
.	16ff#\	.
.	16gg#\	.
.	16aa\JJ	.
8FF#/ 8F#/	16a\LL	ff
.	16b\	.
8r	16cc#\	.
.	16dd\JJ	.
8FF#/ 8F#/	16ee\LL	.
.	16ff#\	.
8r	16gg#\	.
.	16aa\JJ	.
=33	=33	=33
8DD/ 8D/	16ff#\LL	.
.	16ee\	.
8r	16dd\	.
.	16cc#\JJ	.
8DD/ 8D/	16b/LL	.
.	16a/	.
8r	16g#/	.
.	16f#/JJ	.
8EE/ 8E/	8e/	.
8r	8r	.
8EE/ 8E/	8d/ 8g#/	.
8r	8r	.
=34	=34	=34
4AA\ 4A\	16a\LL	.
.	16cc#\	.
.	16ee\	.
.	16dd\JJ	.
4r	16cc#/LL	p
.	16b/	.
.	16a/	.
.	16g#/JJ	.
4A\ 4d\	16f#/LL	.
.	16a/	.
.	16f#/	.
.	16a/JJ	.
4A\ 4B\	16g#/LL	.
.	16b/	.
.	16g#/	.
.	16b/JJ	.
=35	=35	=35
4A\ 4c#\	16a\LL	.
.	16cc#\	.
.	16ee\	.
.	16dd\JJ	.
4r	16cc#/LL	.
.	16b/	.
.	16a/	.
.	16g#/JJ	.
4A\ 4d\	16f#/LL	.
.	16a/	.
.	16f#/	.
.	16a/JJ	.
4A\ 4B\	16g#/LL	.
.	16b/	.
.	16g#/	.
.	16b/JJ	.
=36	=36	=36
4A\ 4c#\	16a\LL	.
.	16b\	.
.	16cc#\	.
.	16dd\JJ	.
4r	16ee\LL	.
.	16ff#\	.
.	16gg#\	.
.	16aa\JJ	.
8DD/L	16ff#\LL	f
.	16ee\	.
8D/	16dd\	.
.	16cc#\JJ	.
8DD/	16b/LL	.
.	16a/	.
8D/J	16g#/	.
.	16f#/JJ	.
=37	=37	=37
8EE/L	(8e/L	.
8E/	8a/) 8cc#/	.
8EE/	8a''/ 8cc#''/	.
8E/J	8a''/ 8cc#''/J	.
8EE/L	8a/ 8cc#/L	.
8E/	8b/ 8dd/	.
8EE/	8g#''/ 8b''/	.
8E/J	8g#''/ 8b''/J	.
=38	=38	=38
8AA\L	8a''/	.
8A\	8r	.
8E\	8a\ 8cc#\ 8ee\ 8aa\	.
8C#\J	8r	.
8AA/	8a\ 8cc#\ 8ee\ 8aa\	.
8r	8r	.
=:|!|:	=:|!|:	=:|!|:
*>B	*>B	*>B
4r	16a\LL	p
.	16b\	.
.	16cc#\	.
.	16dd\JJ	.
=39	=39	=39
8A\L	8ee'\	.
8A\	8r	.
8A\	8a'\ 8cc#'\	.
8A\J	8r	.
8A\L	8b'\ 8dd'\	.
8A\	8r	.
8A\	8cc#'\ 8ee'\	.
8A\J	8r	.
=40	=40	=40
8A\L	4.b\ 4.dd\	.
8A\	.	.
8A\	.	.
8A\J	8cc#\ 8ee\	.
8A\L	4dd\ 4ff#\	.
8A\	.	.
8A\	16b\LL	.
.	16cc#\	.
8A\J	16dd\	.
.	16ee\JJ	.
=41	=41	=41
8A\L	8ff#'\	.
8A\	8r	.
8A\	8b'\ 8dd'\	.
8A\J	8r	.
8A\L	8cc#'\ 8ee'\	.
8A\	8r	.
8A\	8dd'\ 8ff#'\	.
8A\J	8r	.
=42	=42	=42
8A\L	4.cc#\ (4.ee\	.
8A\	.	.
8A\	.	.
8A\J	8dd\ 8ff#\	.
8A\L	4ee\ 4gg\)	.
8A\	.	.
8A\	16gg\LL	f
.	16aa\	.
8A\J	16bb\	.
.	16aa\JJ	.
=43	=43	=43
4A\	16gg\LL	.
.	16aa\	.
.	16ff#\	.
.	16gg\JJ	.
4r	16ee\LL	.
.	16ff#\	.
.	16dd\	.
.	16ee\JJ	.
2r	16cc#\LL	.
.	16dd\	.
.	16b\	.
.	16cc#\JJ	.
.	16a/LL	.
.	16b/	.
.	16g/	.
.	16a/JJ	.
=44	=44	=44
8D\L	4f#/	.
8d\	.	.
8d\	4r	.
8d\J	.	.
8d\L	4r	.
8d\	.	.
8d\	16dd\LL	p
.	16ee\	.
8d\J	16ff#\	.
.	16gg\JJ	.
=45	=45	=45
8d\L	8aa'\	.
8d\	8r	.
8d\	8dd'\ 8ff#'\	.
8d\J	8r	.
8d\L	8ee'\ 8gg'\	.
8d\	8r	.
8d\	8ff#'\ 8aa'\	.
8d\J	8r	.
=46	=46	=46
8d\L	4.ee\ (4.gg\	.
8d\	.	.
8d\	.	.
8d\J	8ff#\ 8aa\	.
8d\L	4gg'\ 4bb'\)	.
8d\	.	.
8d\	16ee\LL	.
.	16ff#\	.
8d\J	16gg\	.
.	16aa\JJ	.
=47	=47	=47
8d\L	8bb\	.
8d\	8r	.
8d\	8ee'\ 8gg'\	.
8d\J	8r	.
8d\L	8ff#'\ 8aa'\	.
8d\	8r	.
8d\	8gg\ 8bb\	.
8d\J	8r	.
=48	=48	=48
4d\	8ff#\ (8aa\L	f
.	8cccn\)	.
4r	8ff#'\ 8aa'\	.
.	8ff#'\ 8aa'\J	p
4d#\	8ff#\ (8aa\L	.
.	8ccc\)	.
4d#\	8ff#'\ 8aa'\	.
.	8ff#'\ 8aa'\J	.
=49	=49	=49
4e\	8ff#\ (8aa\L	.
.	8bb\)	.
4r	8ee'\ 8gg'\	.
.	8ee'\ 8gg'\J	.
4c#\	8ee\ (8gg\L	.
.	8bb\)	.
4c#\	8ee'\ 8gg'\	.
.	8ee'\ 8gg'\J	.
=50	=50	=50
4dn\	8ee\ (8gg\L	.
.	8aa\)	.
4r	8dd'\ 8ff#'\	.
.	8dd'\ 8ff#'\J	.
4A#\	8dd\ 8ff#\L	.
.	8gg\	.
4A#\	8cc#\ 8ee\	.
.	8cc#\ 8ee\J	.
=51	=51	=51
4B\	8cc#\ 8ee\L	.
.	8ff#\	.
4B\	8b\ 8dd\	.
.	8b\ 8dd\J	.
4FF#/ 4F#/	8b\ 8dd\L	f
.	8ee\	.
4FF#/ 4F#/	8a\ 8ccn\	.
.	8a\ 8cc\J	.
=52	=52	=52
4GG/ 4G/	16b/LL	.
.	16d/	.
.	16b/	.
.	16d/JJ	.
4Cn\ 4cn\	16f#/LL	.
.	16d/	.
.	16f#/	.
.	16d/JJ	.
4BB\ 4B\	16g/LL	.
.	16d/	.
.	16g/	.
.	16d/JJ	.
4FF#/ 4F#/	16a/LL	.
.	16d/	.
.	16a/	.
.	16d/JJ	.
=53	=53	=53
4GG/ 4G/	16b/LL	.
.	16d/	.
.	16b/	.
.	16d/JJ	.
4EE/ 4E/	16g/LL	.
.	16c#/	.
.	16g/	.
.	16c#/JJ	.
4DD/ 4D/	16f#/LL	.
.	16d/	.
.	16f#/	.
.	16d/JJ	.
4GGG#/ 4GG#/	16fn/LL	.
.	16d/	.
.	16f/	.
.	16d/JJ	.
=54	=54	=54
4AAA/ 4AA/	16e/LL	.
.	16c#/	.
.	16e/	.
.	16c#/JJ	.
8r	8a'/	.
8AAA/ 8AA/	8r	.
4AAA/ 4AA/	16fn/LL	.
.	16d/	.
.	16f/	.
.	16d/JJ	.
8r	8a'/	.
8AAA/ 8AA/	8r	.
=55	=55	=55
4AAA/ 4AA/	16e/LL	.
.	16c#/	.
.	16e/	.
.	16c#/JJ	.
8r	8a/	.
8AAA/ 8AA/	8r	.
4AAA/ 4AA/	16g#/LL	.
.	16d/	.
.	16g#/	.
.	16d/JJ	.
8r	8b\	.
8AAA/ 8AA/	8r	.
=56	=56	=56
2AAA;/ 2AA;/	16gn/LL	p
.	16e/	.
.	16g/	.
.	16e/JJ	.
.	4cc#;\	.
2r	4r	.
.	16b/LL	.
.	16a/	.
.	16g#/	.
.	16a/JJ	.
=57	=57	=57
8D\L	4.f#/ 4.dd/	.
8A\	.	.
8F#\	.	.
8A\J	8a/	.
8D\L	8f#\L	.
8A\	8a\	.
8F#\	8dd\	.
8A\J	8ff#\J	.
=58	=58	=58
.	aq/	.
8D\L	(4.aa\	.
8A\	.	.
8F#\	.	.
8A\J	16ff#\LL)	p
.	16dd\JJ	.
8D\L	4a/	.
8A\	.	.
8F#\	16dd\LL	.
.	16ee\	.
8A\J	16dd\	.
.	16cc#\JJ	.
=59	=59	=59
8D\L	8b'\	.
8B\	8r	.
8G\	16dd\LL	.
.	16ee\	.
8B\J	16dd\	.
.	16cc#\JJ	.
8D\L	8b'\	.
8B\	8r	.
8G\	16ddd\LL	.
.	16bb\	.
8B\J	16ddd\	.
.	16bb\JJ	.
=60	=60	=60
8D\L	16aa\LL	.
.	16ddd\	.
8A\	16ccc#\	.
.	16bb\JJ	.
8F#\	16aa\LL	.
.	16gg\	.
8A\J	16ff#\	.
.	16ee\JJ	.
8F#\L	8dd'\	.
8A\	8r	.
8D\	8r	.
8A\J	8f#/	.
=61	=61	=61
8C#\L	8g/L	.
8A\	8g/J	.
8E\	16a/LL	.
.	16g/	.
8A\J	16f#/	.
.	16g/JJ	.
8C#\L	4.ee\	f
8A\	.	.
8E\	.	.
8A\J	8g/	.
=62	=62	=62
8D\L	8f#/L	.
8A\	8f#/J	.
8F#\	16g/LL	.
.	16f#/	.
8A\J	16e/	.
.	16f#/JJ	.
8D\L	4.dd\	.
8A\	.	.
8F#\	.	.
8A\J	8f#/	.
=63	=63	=63
2GG/ 2G/	(8f#/L	.
.	8e/	.
.	8g/	.
.	8b/J)	.
2AA\ 2A\	(8b/L	.
.	8c#/	.
.	8e/	.
.	8a/J)	.
=64	=64	=64
*	*^	*
8r	2g/	(2e\	.
8DD/L	.	.	.
8FF#/	.	.	.
8AA/J	.	.	.
8D/L	4f#/	4d\)	.
8AA/	.	.	.
8DD/	8r	4r	.
8D/J	8f#/	.	.
*	*v	*v	*
=65	=65	=65
8C#\L	16g/LL	.
.	16e/	.
8A\	16f#/	.
.	16g/JJ	.
8E\	16a\LL	.
.	16b\	.
8A\J	16cc#\	.
.	16dd\JJ	.
8C#\L	16ee\LL	.
.	16dd\	.
8A\	16cc#\	.
.	16b\JJ	.
8E\	16a/LL	.
.	16g/	.
8A\J	16f#/	.
.	16e/JJ	.
=66	=66	=66
8D\L	16f#/LL	f
.	16d/	.
8A\	16e/	.
.	16f#/JJ	.
8F#\	16g/LL	.
.	16a/	.
8A\J	16b/	.
.	16cc#/JJ	.
8D\L	16dd\LL	.
.	16ee\	.
8A\	16ff#\	.
.	16gg\JJ	.
8F#\	16aa\LL	.
.	16bb\	.
8A\J	16ccc#\	.
.	16ddd\JJ	.
=67	=67	=67
2GG/ 2G/	16r	.
.	16b\LL	.
.	16ee\	.
.	16gg\JJ	.
.	16bb\LL	.
.	16aa\	.
.	16gg\	.
.	16ff#\JJ	.
4AA\ 4A\	16ee\LL	.
.	16dd\	.
.	16cc#\	.
.	16b\JJ	.
4AA\ 4A\	16a/LL	.
.	16g/	.
.	16f#/	.
.	16e/JJ	.
=68	=68	=68
8DD/L	4.d/	ff
8FF#/	.	.
8AA/	.	.
8D/J	8d/	.
8DD/L	8c#/L	.
8D/	8d/	.
8DD/	8cn/	.
8D/J	8f#/J	.
=69	=69	=69
8DD/L	8B/L	.
8D/	8g/J	.
8DD/	16a/LL	.
.	16g/	.
8D/J	16f#/	.
.	16g/JJ	.
8DD/L	8b/L	.
8D/	8g/	.
8DD/	8e/	.
8D/J	8cc#/J	.
=70	=70	=70
8DD/L	4.f#/ 4.dd/	.
8FF#/	.	.
8AA/	.	.
8D/J	8dd\	.
8DD/L	8cc#\L	.
8D/	8dd\	.
8DD/	8ccn\	.
8D/J	8ff#\J	.
=71	=71	=71
8DD/L	16b\LL	.
.	16gg\	.
8D/	16ff#\	.
.	16gg\JJ	.
8DD/	16aa\LL	.
.	16gg\	.
8D/J	16ff#\	.
.	16gg\JJ	.
8DD/L	8bb\L	.
8D/	8gg\	.
8DD/	8ee\	.
8D/J	8ccc#\J	.
=72	=72	=72
8DD/L	16ddd\LL	.
.	16dd\	.
8D/	16ee\	.
.	16ff#\JJ	.
8DD/	16gg\LL	.
.	16aa\	.
8D/J	16bb\	.
.	16ccc#\JJ	.
8CC#/L	16ddd\LL	.
.	16dd\	.
8C#/	16ee\	.
.	16ff#\JJ	.
8CC#/	16gg\LL	.
.	16aa\	.
8C#/J	16bb\	.
.	16ccc#\JJ	.
=73	=73	=73
8BBB/L	16ddd\LL	.
.	16dd\	.
8BB/	16ee\	.
.	16ff#\JJ	.
8BBB/	16gg\LL	.
.	16aa\	.
8BB/J	16bb\	.
.	16ccc#\JJ	.
8GGG#/L	8ddd\L	.
8GG#/	8dd\J	.
8GGG#/	16ee\LL	.
.	16dd\	.
8GG#/J	16cc#\	.
.	16dd\JJ	.
=74	=74	=74
4AAA/ 4AA/	4cc#\ 4ee\ 4aa\	.
4AA\ 4A\	4cc#\ 4ee\ 4aa\	.
4AA\ 4A\	4cc#\ 4ee\ (4aa\	.
4r	8ggn\L	.
.	8ff#\J)	.
*clefG2	*	*
=75	=75	=75
8g/L	4ee\	.
8a/	.	.
8g/	4ee\	.
8a/J	.	.
8g/L	4aa\	.
8a/	.	.
8g/	4cc#\	.
8a/J	.	.
=76	=76	=76
8f#/L	2ee\	.
8a/	.	.
8f#/	.	.
8a/J	.	.
8f#/L	4dd\	.
8a/	.	.
8f#/	8ee\L	.
8a/J	8ff#\J	.
=77	=77	=77
8e/L	4gg\	.
8a/	.	.
8A/	4gg\	.
8a/J	.	.
8d/L	4ff#\	.
8a/	.	.
8A/	4ff#\	.
8a/J	.	.
=78	=78	=78
8c#/L	4ee\	.
8a/	.	.
8A/	2aa\	.
8a/J	.	.
8c#/L	.	.
8a/	.	.
8e/	8gg\L	.
8a/J	8ff#\J	.
=79	=79	=79
8g/L	4ee\	.
8a/	.	.
8g/	4ee\	.
8a/J	.	.
8g/L	4aa\	.
8a/	.	.
8g/	4cc#\	.
8a/J	.	.
=80	=80	=80
8f#/L	2ee\	.
8a/	.	.
8f#/	.	.
8a/J	.	.
8f#/L	4dd\	.
8a/	.	.
8f#/	8ddd\L	.
8a/J	8aa\J	.
=81	=81	=81
8A/L	4ff#\	.
8a/	.	.
8d/	4.ff#\	.
8a/J	.	.
8A/L	.	.
8a/	8aa\L	.
8c#/	8gg\	.
8a/J	8ee\J	.
=82	=82	=82
4d/ 4f#/	16dd\LL	f
.	16ee\	.
.	16dd\	.
.	16ee\JJ	.
4r	8ff#\L	.
.	8dd\J	.
4d/ 4g/	16b\LL	.
.	16dd\	.
.	16b\	.
.	16dd\JJ	.
4d/ 4e/	16cc#\LL	.
.	16ee\	.
.	16cc#\	.
.	16ee\JJ	.
=83	=83	=83
4d/ 4f#/	16dd\LL	.
.	16ee\	.
.	16dd\	.
.	16ee\JJ	.
4r	8ff#\L	.
.	8dd\J	.
4d/ 4g/	16b\LL	.
.	16dd\	.
.	16b\	.
.	16dd\JJ	.
4d/ 4e/	16cc#\LL	.
.	16ee\	.
.	16cc#\	.
.	16ee\JJ	.
=84	=84	=84
4d/ 4f#/	16dd\LL	.
.	16ee\	.
.	16ff#\	.
.	16gg\JJ	.
4r	16aa\LL	.
.	16bb\	.
.	16ccc#\	.
.	16ddd\JJ	.
*clefF4	*	*
8BB\ 8B\	16dd\LL	ff
.	16ee\	.
8r	16ff#\	.
.	16gg\JJ	.
8BB\ 8B\	16aa\LL	.
.	16bb\	.
8r	16ccc#\	.
.	16ddd\JJ	.
=85	=85	=85
8GG/ 8G/	16bb\LL	.
.	16aa\	.
8r	16gg\	.
.	16ff#\JJ	.
8GG/ 8G/	16ee\LL	.
.	16dd\	.
8r	16cc#\	.
.	16b\JJ	.
8AA\ 8A\	8a/	.
8r	8r	.
8AA\ 8A\	8g'/ 8a'/ 8cc#'/	.
8r	8r	.
=86	=86	=86
4D\ 4d\	16dd\LL	p
.	16ff#\	.
.	16aa\	.
.	16gg\JJ	.
4r	16ff#\LL	.
.	16ee\	.
.	16dd\	.
.	16cc#\JJ	.
*clefG2	*	*
4d/ 4g/	16b\LL	.
.	16dd\	.
.	16b\	.
.	16dd\JJ	.
4d/ 4e/	16cc#\LL	.
.	16ee\	.
.	16cc#\	.
.	16ee\JJ	.
=87	=87	=87
4d/ 4f#/	16dd\LL	.
.	16ff#\	.
.	16aa\	.
.	16gg\JJ	.
4r	16ff#\LL	.
.	16ee\	.
.	16dd\	.
.	16cc#\JJ	.
4d/ 4g/	16b\LL	.
.	16dd\	.
.	16b\	.
.	16dd\JJ	.
4d/ 4e/	16cc#\LL	.
.	16ee\	.
.	16cc#\	.
.	16ee\JJ	.
=88	=88	=88
4d/ 4f#/	16dd\LL	.
.	16ff#\	.
.	16aa\	.
.	16gg\JJ	.
4r	16ff#\LL	.
.	16ee\	.
.	16dd\	.
.	16cc#\JJ	.
*clefF4	*	*
8GGG/L	16b/LL	.
.	16a/	.
8GG/	16g/	.
.	16f#/JJ	.
8GGG/	16e/LL	.
.	16d/	.
8GG/J	16c#/	.
.	16B/JJ	.
=89	=89	=89
8AAA/L	8A/L	f
8AA/	8d/ 8f#/	.
8AAA/	8d/ 8f#/	.
8AA/J	8d/ 8f#/J	.
8AAA/L	(8d/ 8f#/L	.
8AA/	8e/) 8g/	.
8AAA/	8c#/ 8e/	.
8AA/J	8c#/ 8e/J	.
=90	=90	=90
8DD/L	8d/	.
8D/	8r	.
8AA/	8d/ 8f#/ 8a/ 8dd/	.
8FF#/J	8r	.
8DD/	8d/ 8f#/ 8a/ 8dd/	.
8r	8r	.
==:|!	==:|!	==:|!
*-	*-	*-
!!!ENC: Craig Stuart Sapp
!!!END: 2004/11/26/
